!!!OTL-incipit: WIE KOMMTS DASS DU SO TRAURIG BIST
!!!ARE: Europa, Mitteleuropa, Deutschland, Westfalen
!!!SCT: Z0226
!!!TXL: @@DE
!!!YEM: Copyright 1995, estate of Helmut Schaffrath.
**kern	**text
*ICvox	*
*M6/8	*
*k[b-e-a-]	*
*c:	*
!LO:TX:a:t=V.1.A.	!
!LO:TX:a:t=Weſtphalen.	!
!LO:TX:a:t=Jägerlied.	!
{8g	Wie
=1	=1
4cc	kommts,
8cc	daß
4cc	du
8cc	ſo
=2	=2
4b/	traurig
8a	.
4g}	biſt
{8b/	und
=3	=3
4cc	gar
8cc	nicht
4ee-	ein-
8cc	-mal
=4	=4
[4.g	lachſt?
4g]}	.
=:|:	=:|:
{8g	Jch
=5	=5
4dd	ſeh's
8dd	dir
4dd	an
8dd	den
=6	=6
4gg	Au-
8gg	-gen
4gg}	an,
{8ff	daß
=7	=7
4ee-	du
8dd	ge-
4cc	-wei-
8b	-net
=8	=8
[4.cc	haſt.
4cc]}	.
=:|	=:|
!LO:TX:a:t=V.1.B.	!
{8gg	Und
=9	=9
4ee-	wenn
8ee-	ich
4ee-	auch
8ee-	ge-
=10	=10
4dd	-wei-
8dd	-net
4dd}	hab',
{8dd	was
=11	=11
4ee-	geht
8dd	es
4gg	dich
8ee-	denn
=12	=12
[4.dd	an?
4dd]}	.
{8dd	ich
=13	=13
4ff	wein',
8ff	daß
4ff	du
8ff	es
=14	=14
4ee-	weißt,
8ee-	um
4ee-}	Freud',
{8aa-	die
=15	=15
4gg	mir
8ff	nicht
4ee-	wer-
8dd	-den
=16	=16
[4.ee-	kann.
4ee-]}	.
==	==
!!!AGN: Jaeger - Lied, Liebes - Lied
!!!ONB: ESAC (Essen Associative Code) Database: ZUCCAL
!!!AMT: compound duple
!!!AIN: vox
!!!EED: Helmut Schaffrath
!!!EEV: 1.0
!!!GTL: III. Soldaten-, Jaeger-, Schiffer-, Fuhrmanns- und Handwerks-Lieder.
!!!URL-scan: https://www.digitale-sammlungen.de/de/view/bsb11160571?page=421
!!!ENC: Anna Maria Matuszewska
!!!EEV: 2025/01/29
*-	*-
